X:67
T:My Darling Asleep
S:The Session: https://thesession.org/tunes/76#setting76
S:https://JamBuddy.live 2025
C:Traditional
R:jig
K:D
M:6/8
L:1/8
Q:113
|: fdd cAA| BGG A2G| FAA def| gfg eaa|
! fdd cAA| BGG A2G| FAA def| gec d3:| ! |:
FAA Add| FAA BGG| FAA def| gfg eaa|
! fdd cAA| BGG A2G| FAA def| gec d3:|

